!!!OTL: ALLAH GIBT LICHT IN NAECHTEN
!!!ARE: Europa, Mitteleuropa, Deutschland
!!!SCT: F1058
!!!YEM: Copyright 1995, estate of Helmut Schaffrath.
**kern
*ICvox
*Ivox
*M4/4
*k[b-]
*F:
=1
{4a
8a
8a
4a
4a
=2
2b-
4a
4r}
=3
{4g
8f#
8f#
8g
8dd
16cc
16b-
16a
16g
=4
2f
4e
8r}
{8g
=5
8a
4g
8g
8a
4g
8g
=6
2bn
4cc
8r}
{8b-
=7
4b-
4a
4.g
8cc
=8
4f
2.r}
==
!!!AGN: Trost - Lied
!!!ONB: ESAC (Essen Associative Code) Database: FINK
!!!AMT: simple quadruple
!!!AIN: vox
!!!EED: Helmut Schaffrath
!!!EEV: 1.0
*-
